X:1
T:Redde mihi laetitiam
T:José Durán [17??- c1791] Edited by Jonathan Goodliffe and Mick Swithinbank
T:From the Música Colonial archive in Guatemala, manuscript 3-051
T:Redde mihi laetitiam
T:Solo para el niño Don Mariano González
T:Copyright © 
T:Copyright © 
T:Copyright © 
T:Copyright © 
C:José Durán [17??- c1791]
C:Edited by Jonathan Goodliffe and Mick Swithinbank
Z:From the Música Colonial archive
Z:in Guatemala, manuscript 3-051
Z:Copyright ©
%%score 1 [ ( 2 3 ) 4 ]
L:1/8
M:4/4
K:A
V:1 treble nm="Treble" snm="Tr."
V:2 treble nm="Violins" snm="Vlns."
V:3 treble 
V:4 bass nm="Continuo" snm="Cont."
V:1
 z8 | z8 | z8 | z8 | z8 | z8 | z8 | z8 | A4 B4 | c>B A>G A2 E2 | F3 d c>B A>G | A2 z2 z2 E2 | %12
w: ||||||||Re[d]- de|mi- * * * hi l[a]e-|ti- * * * ti- *|am, lae-|
w: ||||||||||* * * * [si] *||
 F3 d c>B A>G | A4 z4 | c3 B/c/ A2 z2 | z2 (3FGF A2 c2 | B3 A/B/ G2 z2 | z2 (3EFE G2 B2 | %18
w: ti- * * * ti- *|am,|red- * * de|mi- * * hi lae-|ti- ti- * am|sa- * * lu- *|
w: ||||||
 A3 F AG FE | B2 B2 z4 | (B3 c) (A3 B) | (G3 A) F2 F2 | B3 c A3 B | G3 A F4 | E3 F/G/ AB c^d | %25
w: ta- * * * ris _|tu- i,|red- * de _|mi- * hi lae-|ti- * * *|* ti- am|sa- * * * * lu- *|
w: |||||||
 e2 ^dc B2 A2 | (3GBA (3GFE TF4 | E4 z4 | z8 | z8 | z8 | z8 | z8 | z8 | z8 | z8 | E4 F4 | %37
w: ta- * * * ris|tu- * * * * * *|i.|||||||||Red- de|
w: ||||||||||||
 (3GAB E2 z2 B2 | c6 c2 | B4 z BGE | A3 B/c/ B2 A2 | G2 B4 G2 | ^E4 F4 | G2 C2 z (BA)G | %44
w: mi- * * hi lae-|ti- ti-|am, lae- * *|ti- * * * ti-|am sa- lu-|ta- ris|tu- i, sa- * lu-|
w: |||||||
 (3AGF (3dcB A2 G2 | F2 A4 F2 | ^D2 DD E2 E2 | F2 B,2 A4 | GE cA G2 F2 | E2 z2 z2 E2 | %50
w: ta- * * ris _ _ tu- *|i et _|spi- ri- tu prin- ci-|pa- li con-|fir- * * * * ma|me, con-|
w: |* [es]- *|[pi]- * * * *||||
 (3FED (3FED B2 A2 | (3GFE (3GFE c2 B2 | (3AGF (3AGF d2 c2 | (3BAG (3BAG e2 d2 | c2 Bc d2 c2 | %55
w: fir- * * * * * * *||||* * * * ma|
w: |||||
 B4 z4 | A4 B4 | c>B A>G A2 E2 | F2 d2 cB AG | A2 z2 z4 | z2 (dB) (cA) (BG) | A2 z2 z4 | %62
w: me,|et _|spi- * ri- tu prin- ci-|pa- * * * * *|li|con- * fir- * ma _|me,|
w: |||||||
 z2 (dB) (cA) (BG) | (A4 ^G4) | (=G4 F4) | (=F4 E4) | ^D8 | E8- | !fermata!E8 |] %69
w: con- * fir- * ma _|con _|fir- *|ma _|_|me.|_|
w: |||||||
V:2
 A4 B4 | c>B A>G A2 E2 | F2 d>B c>A B>G | A2 a>f e2 a>f | e2 f>d e>c d>B | c2 a>f e2 a>f | %6
 e2 f>d e>c d>B | A2 E2 A4 | !/!A4 !/!B4 | c>B A>G A2 e2 | F2 Dd c>B A>G | A2 A/B/c/B/ A2 e2 | %12
 F2 Dd c>B A>G | A2 (a/g/a/b/) aA ce | !/![ce]4 !/![ce]4 | e2 z2 z4 | !/!e4 !/!e4 | e2 z2 z4 | %18
 ^d4 e4 | f B2 B B2 B2 | z b B2 z b B2 | z b B2 z b B2 | z b B2 z b B2 | z bBb BbBb | E2 z2 z4 | %25
 ^G2 A2 B2 c2 | e4 ^d4 | eBGB E2 z2 | e4 f4 | g>f e>^d e2 B2 | c2 (a>f) (g>e) (f>^d) | %31
 e2 e>c B2 e>c | B2 (c>A) (B>G) (A>F) | G2 e>c B2 e>c | B2 c>A B>G A>F | E2 B,2 G,2 z2 | E4 F4 | %37
 (3GAB Ee B2 G2 | z Ace z aec | z GBe z geB | z FA^d z fdA | G2 B4 G2 | c4 ^B4 | c2 c^e gd'c'b | %44
 a2 gf f2 ^e2 | f2 A4 F2 | B4 ^A4 | B2 B^d fc'ba | ga/b/ eg fg/a/ ^df | e2 E2 (3z ed (3cBA | %50
 f2 D2 (3z fe (3^dcB | g2 E2 (3z gf (3edc | a2 F2 (3z ag (3fed | b2 G2 (3z ba (3gfe | %54
 c'2 C2 F2 A2 | B2 eB G2 BG | Aaec dbgd | c>B A>G A2 e2 | F2 Dd c>B A>G | A2 a>f e2 a>f | %60
 e2 fd ecdB | c2 a>f e2 a>f | e2 fd ecdB | C4 D4 | E4 F4 | A8 | A8 | ^G2 E2 E2 E2 | !fermata!E8 |] %69
V:3
 x8 | x8 | x8 | x8 | x8 | x8 | x8 | x8 | x8 | x8 | x8 | x8 | x8 | x8 | x8 | c2 x2 x4 | %16
 !/!B4 !/!B4 | B2 x2 x4 | x8 | x8 | x8 | x8 | x8 | x8 | x8 | x8 | x8 | x8 | x8 | x8 | x8 | x8 | %32
 x8 | x8 | x8 | x8 | x8 | x8 | x8 | x8 | x8 | x8 | x8 | x8 | x8 | x8 | x8 | x8 | x8 | x8 | x8 | %51
 x8 | x8 | x8 | x8 | x8 | x8 | x8 | x8 | x8 | x8 | x8 | x8 | x8 | x8 | x8 | x8 | x8 | x8 |] %69
V:4
 z2 A,2 G,2 E,2 | A,2 z2 z2 C,2 | !/!D,4 !/!E,4 | A,2 D,2 C,2 D,2 | C,2 D,2 E,2 E,,2 | %5
 A,,2 D,2 C,2 D,2 | C,2 D,2 E,2 E,,2 | A,,2 A,2 A,,4 | z2 A,2 G,2 E,2 | A,2 A,,B,, C,2 C,2 | %10
 !/!D,4 !/!E,4 | A,2 A,,B,, C,2 C,2 | !/!D,4 !/!E,4 | A,,A,E,C, A,,2 z2 | !/!A,4 !/!A,4 | %15
 A,2 z2 z2 A,2 | !/!G,4 !/!G,4 | G,2 z2 z2 E,2 | F,2 ^D,2 E,2 ^A,,2 | !/!B,,4 !/!B,,4 | %20
 ^G,B,,G,B,, F,B,,F,B,, | E,B,,E,B,, ^D,B,,D,B,, | G,B,,G,B,, F,B,,F,B,, | E,B,,E,B,, ^D,B,,D,B,, | %24
 E,2 z2 z4 | E,2 F,2 G,2 A,2 | !/!B,4 !/!B,4 | E,2 E,2 E,2 z2 | z2!f! E,2 ^D,2 B,,2 | %29
 E,2 E,F, G,2 G,2 | !/!A,4 !/!B,4 | E,2 A,2 G,2 A,2 | G,2 A,2 B,2 B,2 | E,2 A,2 G,2 A,2 | %34
 G,2 A,2 B,2 B,,2 | !/!E,4 E,2 z2 | z2 E,2 ^D,2 B,,2 | E,2 z2 G,2 E,2 | A,,G,,A,,B,, C,B,,C,^D, | %39
 E,^D,E,F, G,F,G,E, | F,G,F,E, ^D,B,,C,D, | E,4 D,4 | C,4 z2 ^B,,2 | C,2 C,2 ^E,2 E,2 | %44
 F,2 B,,2 C,2 C,2 | F,,4 z4 | B,,4 =C,4 | B,,2 B,,2 ^D,4 | E,2 A,,2 B,,2 B,,2 | C,2 E,D, C,4 | %50
 D,4 ^D,4 | E,4 ^E,4 | F,4 F,4 | ^G,4 ^G,4 | A,2 C,2 D,2 ^D,2 | E,2 E,F, E,D,D,C, | A,,2 C,2 E,4 | %57
 A,2 z2 z2 C,2 | !/!D,4 !/!E,4 | A,,2 D2 C2 D2 | C2 D,2 E,2 F,2 | A,2 D2 C2 D2 | C,2 D,2 E,2 E,2 | %63
 A,,4 B,,4 | C,4 D,4 | =F,8 | =F,8 | E,8- | !fermata!E,8 |] %69

